X: 1516
T: Paddy's Surprise   #2
T: iongantas .paidin.
R: reel
%S: s:2 b:13(7+6)
B: O'Neill's 1850 "Music of Ireland" #1516
O: F.O'Neill
Z: transcribed by John B. Walsh, walsh@math.ubc.ca 8/23/96
Z: Compacted via repeats and multiple endings [JC]
M: C|
L: 1/8
K: G
((3DEF) \
|: G2(BA) GABc | dBec \
[1 dBAB | G2(BA) GABc | dcAB GFED :|\
[2 d2 ((3def) | gfge dBge | dBAB G2 |]
((3def) \
|: gfgd edBd | gabg agef |\
[1 gfgd edBd | cABG AGEG :|\
[2 gfge dBge | dBAB G2 |]
